assets/icons/qvision/play_for_work.svg

<svg xmlns="http://www.w3.org/2000/svg" height="24" viewBox="0 0 24 24" width="24"><path d="M0 0h24v24H0z" fill="none"/><path d="M11 5v5.59H7.5l4.5 4.5 4.5-4.5H13V5h-2zm-5 9c0 3.31 2.69 6 6 6s6-2.69 6-6h-2c0 2.21-1.79 4-4 4s-4-1.79-4-4H6z"/></svg>

<svg width="24" height="24" viewBox="0 0 24 24" fill="none" xmlns="http://www.w3.org/2000/svg">
<g clip-path="url(#clip0_147_4568)">
<path d="M11 5V10.59H7.5L12 15.09L16.5 10.59H13V5H11ZM6 14C6 17.31 8.69 20 12 20C15.31 20 18 17.31 18 14H16C16 16.21 14.21 18 12 18C9.79 18 8 16.21 8 14H6Z" fill="#323232"/>
</g>
<defs>
<clipPath id="clip0_147_4568">
<rect width="24" height="24" fill="white"/>
</clipPath>
</defs>
</svg>
